src/assets/check-circled.svg

<svg fill="none" height="44" viewBox="0 0 44 44" width="44" xmlns="http://www.w3.org/2000/svg"><circle cx="21.9348" cy="22.2044" fill="#f2fbf9" r="19.7942" stroke="#16d2aa" stroke-width="4"/><path clip-rule="evenodd" d="m20.3569 28.739-.7526-.7526-.7526.7526c.4156.4157 1.0895.4157 1.5052 0zm-.7526-2.2578-4.924-4.924c-.4157-.4157-1.0896-.4157-1.5053 0-.4156.4156-.4156 1.0895 0 1.5052l5.6767 5.6766.7526-.7526c.7526.7526.7525.7527.7526.7526l10.9524-10.9523c.4156-.4157.4156-1.0896 0-1.5053-.4157-.4157-1.0896-.4157-1.5053 0z" fill="#16d2aa" fill-rule="evenodd"/><path d="m19.6043 27.9864.7526.7526m-.7526-.7526-.7526.7526m.7526-.7526c.7526.7526.7525.7527.7526.7526m0 0c-.4157.4157-1.0896.4157-1.5052 0m1.5052 0 10.9524-10.9523c.4156-.4157.4156-1.0896 0-1.5053-.4157-.4157-1.0896-.4157-1.5053 0l-10.1997 10.1998-4.924-4.924c-.4157-.4157-1.0896-.4157-1.5053 0-.4156.4156-.4156 1.0895 0 1.5052l5.6767 5.6766" stroke="#16d2aa" stroke-linecap="round" stroke-linejoin="round" stroke-width="2"/></svg>

<svg width="44" height="44" viewBox="0 0 44 44" fill="none" xmlns="http://www.w3.org/2000/svg">
<circle cx="21.9348" cy="22.2044" r="19.7942" fill="#F2FBF9" stroke="#16D2AA" stroke-width="4"/>
<path fill-rule="evenodd" clip-rule="evenodd" d="M20.3569 28.739L19.6043 27.9864L18.8517 28.739C19.2673 29.1547 19.9412 29.1547 20.3569 28.739ZM19.6043 26.4812L14.6803 21.5572C14.2646 21.1415 13.5907 21.1415 13.175 21.5572C12.7594 21.9728 12.7594 22.6467 13.175 23.0624L18.8517 28.739L19.6043 27.9864C20.3569 28.739 20.3568 28.7391 20.3569 28.739L31.3093 17.7867C31.7249 17.371 31.7249 16.6971 31.3093 16.2814C30.8936 15.8657 30.2197 15.8657 29.804 16.2814L19.6043 26.4812Z" fill="#16D2AA"/>
<path d="M19.6043 27.9864L20.3569 28.739M19.6043 27.9864L18.8517 28.739M19.6043 27.9864C20.3569 28.739 20.3568 28.7391 20.3569 28.739M20.3569 28.739C19.9412 29.1547 19.2673 29.1547 18.8517 28.739M20.3569 28.739L31.3093 17.7867C31.7249 17.371 31.7249 16.6971 31.3093 16.2814C30.8936 15.8657 30.2197 15.8657 29.804 16.2814L19.6043 26.4812L14.6803 21.5572C14.2646 21.1415 13.5907 21.1415 13.175 21.5572C12.7594 21.9728 12.7594 22.6467 13.175 23.0624L18.8517 28.739" stroke="#16D2AA" stroke-width="2" stroke-linecap="round" stroke-linejoin="round"/>
</svg>
